X:90
T: Graf und Nonne (Die Nonne)
N: Q0155a
O: Mitteleuropa, Deutschland (BRD) , Niedersachsen, Osnabrueck, Hagen
N: Kontaminierte Fassung mit "Im schoensten Wiesengrunde" . Anhaengsel
N: an der dritten Zeile.
R: Ballade, Standesunterschied, vergebliche Werbung, Liebe, Klage
M: 4/4
L: 1/8
K: G
GB | d3gdBcA | B3AB2
dd | e2d2c2B2 | A4z2
GB | d2d2d2d2 | e4d4 | c4B2
d2 | e2dcB2A2 | G4z2

@@@ Tune index: 1800
